assets/disconnectIcon.svg

<?xml version="1.0" encoding="UTF-8" standalone="no"?>
<!-- Created with Inkscape (http://www.inkscape.org/) -->

<svg
   xmlns:dc="http://purl.org/dc/elements/1.1/"
   xmlns:cc="http://creativecommons.org/ns#"
   xmlns:rdf="http://www.w3.org/1999/02/22-rdf-syntax-ns#"
   xmlns:svg="http://www.w3.org/2000/svg"
   xmlns="http://www.w3.org/2000/svg"
   xmlns:xlink="http://www.w3.org/1999/xlink"
   xmlns:sodipodi="http://sodipodi.sourceforge.net/DTD/sodipodi-0.dtd"
   xmlns:inkscape="http://www.inkscape.org/namespaces/inkscape"
   version="1.0"
   width="16"
   height="16"
   id="svg2403"
   inkscape:version="0.48.3.1 r9886"
   sodipodi:docname="logout.svg"
   inkscape:export-filename="logout.png"
   inkscape:export-xdpi="90"
   inkscape:export-ydpi="90">
  <sodipodi:namedview
     pagecolor="#ffffff"
     bordercolor="#666666"
     borderopacity="1"
     objecttolerance="10"
     gridtolerance="10"
     guidetolerance="10"
     inkscape:pageopacity="0"
     inkscape:pageshadow="2"
     inkscape:window-width="1215"
     inkscape:window-height="776"
     id="namedview3047"
     showgrid="false"
     inkscape:zoom="12.639534"
     inkscape:cx="13.934423"
     inkscape:cy="7.8227424"
     inkscape:window-x="65"
     inkscape:window-y="24"
     inkscape:window-maximized="1"
     inkscape:current-layer="svg2403" />
  <metadata
     id="metadata15">
    <rdf:RDF>
      <cc:Work
         rdf:about="">
        <dc:format>image/svg+xml</dc:format>
        <dc:type
           rdf:resource="http://purl.org/dc/dcmitype/StillImage" />
        <dc:title />
      </cc:Work>
    </rdf:RDF>
  </metadata>
  <defs
     id="defs2405">
    <linearGradient
       x1="11.644068"
       y1="2.4988678"
       x2="11.644068"
       y2="15.00281"
       id="linearGradient2392"
       xlink:href="#linearGradient3678"
       gradientUnits="userSpaceOnUse"
       gradientTransform="translate(1.0000001,1.1920928e-8)" />
    <linearGradient
       x1="8.4964771"
       y1="-0.061573759"
       x2="8.4964771"
       y2="8.083209"
       id="linearGradient2395"
       xlink:href="#linearGradient3678"
       gradientUnits="userSpaceOnUse"
       gradientTransform="matrix(1.0526316,0,0,0.9843625,0.578947,0.06024281)" />
    <linearGradient
       id="linearGradient3678">
      <stop
         id="stop3680"
         style="stop-color:#ffffff;stop-opacity:1"
         offset="0" />
      <stop
         id="stop3682"
         style="stop-color:#e6e6e6;stop-opacity:1"
         offset="1" />
    </linearGradient>
    <linearGradient
       inkscape:collect="always"
       xlink:href="#linearGradient3678"
       id="linearGradient3879"
       gradientUnits="userSpaceOnUse"
       gradientTransform="matrix(1.0526316,0,0,0.9843625,0.578947,0.06024281)"
       x1="8.4964771"
       y1="-0.061573759"
       x2="8.4964771"
       y2="8.083209" />
    <linearGradient
       inkscape:collect="always"
       xlink:href="#linearGradient3678"
       id="linearGradient3908"
       gradientUnits="userSpaceOnUse"
       gradientTransform="translate(1.0000001,1.1920928e-8)"
       x1="11.644068"
       y1="2.4988678"
       x2="11.644068"
       y2="15.00281" />
    <linearGradient
       inkscape:collect="always"
       xlink:href="#linearGradient3678"
       id="linearGradient3914"
       gradientUnits="userSpaceOnUse"
       gradientTransform="matrix(1.0526316,0,0,0.9843625,0.578947,0.06024281)"
       x1="8.4964771"
       y1="-0.061573759"
       x2="8.4964771"
       y2="8.083209" />
    <linearGradient
       inkscape:collect="always"
       xlink:href="#linearGradient3678"
       id="linearGradient3916"
       gradientUnits="userSpaceOnUse"
       gradientTransform="translate(1.0000001,1.1920928e-8)"
       x1="11.644068"
       y1="2.4988678"
       x2="11.644068"
       y2="15.00281" />
    <linearGradient
       inkscape:collect="always"
       xlink:href="#linearGradient3678"
       id="linearGradient3919"
       gradientUnits="userSpaceOnUse"
       gradientTransform="translate(1.0000001,1.1920928e-8)"
       x1="11.644068"
       y1="2.4988678"
       x2="11.644068"
       y2="15.00281" />
    <linearGradient
       inkscape:collect="always"
       xlink:href="#linearGradient3678"
       id="linearGradient3922"
       gradientUnits="userSpaceOnUse"
       gradientTransform="matrix(1.0526316,0,0,0.9843625,0.578947,0.06024281)"
       x1="8.4964771"
       y1="-0.061573759"
       x2="8.4964771"
       y2="8.083209" />
    <linearGradient
       inkscape:collect="always"
       xlink:href="#linearGradient3678"
       id="linearGradient3925"
       gradientUnits="userSpaceOnUse"
       gradientTransform="matrix(1.0526316,0,0,0.9843625,0.578947,0.06024281)"
       x1="8.4964771"
       y1="-0.061573759"
       x2="8.4964771"
       y2="15.216674" />
    <linearGradient
       inkscape:collect="always"
       xlink:href="#linearGradient3678"
       id="linearGradient3942"
       gradientUnits="userSpaceOnUse"
       gradientTransform="matrix(1.0526316,0,0,0.9843625,-0.42098964,0.06024281)"
       x1="8.4964771"
       y1="-0.061573759"
       x2="8.4964771"
       y2="15.216674" />
  </defs>
  <path
     sodipodi:nodetypes="sccsccsccssscscssscscc"
     inkscape:connector-curvature="0"
     style="font-size:medium;font-style:normal;font-variant:normal;font-weight:normal;font-stretch:normal;text-indent:0;text-align:start;text-decoration:none;line-height:normal;letter-spacing:normal;word-spacing:normal;text-transform:none;direction:ltr;block-progression:tb;writing-mode:lr-tb;text-anchor:start;baseline-shift:baseline;color:#000000;fill:#ffffff;fill-opacity:1;stroke:none;stroke-width:2;marker:none;visibility:visible;display:inline;overflow:visible;enable-background:accumulate;font-family:Sans;-inkscape-font-specification:Sans"
     d="m 8.0000634,0 c -0.4714045,0 -0.9610304,0.5419023 -0.95,1 l 0,6 c -0.00747,0.5283126 0.4216346,1 0.95,1 0.5283654,0 0.957472,-0.4716874 0.95,-1 l 0,-6 c 0.014622,-0.605105 -0.4785955,-1 -0.95,-1 z m -3.34375,2.5 c -0.087186,0.019294 -0.1716251,0.050959 -0.25,0.09375 -2.9994999,1.5715133 -3.91842874,4.7978566 -3.125,7.46875 C 2.0747421,12.733393 4.5611725,15 7.9688134,15 11.327833,15 13.846204,12.850562 14.687563,10.21875 15.528922,7.5869378 14.630363,4.3955638 11.562563,2.625 11.128957,2.3713639 10.503661,2.535122 10.250038,2.9687356 9.9964154,3.4023491 10.160192,4.0276401 10.593813,4.28125 c 2.390793,1.3798311 2.882452,3.4944109 2.28125,5.375 -0.601202,1.880589 -2.344037,3.4375 -4.9062496,3.4375 -2.575923,0 -4.297634,-1.650181 -4.875,-3.59375 C 2.5164474,7.5564313 3.0469519,5.451888 5.2813134,4.28125 5.6599659,4.0748887 5.8603711,3.5887067 5.7371222,3.1754605 5.6138734,2.7622144 5.1798937,2.4652349 4.7500634,2.5 4.7188384,2.49846 4.6875384,2.49846 4.6563134,2.5 z"
     id="path3781" />
</svg>

<?xml version="1.0" encoding="UTF-8" standalone="no"?>
<svg xmlns:rdf="http://www.w3.org/1999/02/22-rdf-syntax-ns#" xmlns="http://www.w3.org/2000/svg" height="16" width="16" version="1.0" xmlns:cc="http://creativecommons.org/ns#" xmlns:xlink="http://www.w3.org/1999/xlink" xmlns:dc="http://purl.org/dc/elements/1.1/">
 <path style="block-progression:tb;text-indent:0;color:#000000;text-transform:none" d="m8.0001 0c-0.4714 0-0.96103 0.5419-0.95 1v6c-0.00747 0.52831 0.42163 1 0.95 1s0.95747-0.47169 0.95-1v-6c0.014622-0.6051-0.4786-1-0.95-1zm-3.3438 2.5c-0.087186 0.019294-0.17163 0.050959-0.25 0.09375-2.9995 1.5715-3.9184 4.7979-3.125 7.4688 0.7934 2.67 3.2799 4.937 6.6875 4.937 3.3592 0 5.8772-2.149 6.7192-4.781 0.841-2.6321-0.058-5.8234-3.125-7.594-0.434-0.2536-1.059-0.0899-1.313 0.3437-0.2536 0.4336-0.09 1.0589 0.344 1.3125 2.3908 1.3798 2.8825 3.4944 2.2812 5.375-0.6012 1.8806-2.344 3.4375-4.9062 3.4375-2.5759 0-4.2976-1.6502-4.875-3.5938-0.5776-1.9435-0.047-4.048 2.1873-5.2187 0.3787-0.2063 0.5791-0.6925 0.4558-1.1057-0.1232-0.4133-0.5572-0.7103-0.987-0.6755-0.0313-0.0015-0.0626-0.0015-0.0938 0z" fill="#fff"/>
</svg>
